X: 34822
T: Road To Thurles, The
R: reel
M: 4/4
K: Adorian
EG|:ABAG EDEG|A2 Bd edBe|d2 BG DGBG|AGEF G2 ED|
EAAG EDEG|A2 Bd efgb|agef g2 ab|1 gedB A2 AG:|2 gedB A2 Bd||
|:ea a2 gedB|A2 Bd egge|d2 BG DGBG|AGEF G2 ED|
EAAG EDEG|A2 Bd efgb|agef g2 ab|1 gedB A2 Bd:|2 gedB A2 A2||

